X:1929
T:Bourrée planière
C:Trad 3, 21
M:3/8
L:1/8
K:C
E:12
G|A/B/AD|G2A||\
e2d|e2d|c/d/cB|cAA|\
e2d|e2d|c/d/cB|1 A2A:|2 A2c||
|:c2B|G2G|A/B/AD|GAB|\
c2B|G2G|A/B/AD|1 G2c:|2 G2G||


